assets/coins/svg/BTC.svg

<svg width="64" height="64" viewBox="0 0 64 64" fill="none" xmlns="http://www.w3.org/2000/svg">
<g clip-path="url(#clip0_40_26566)">
<mask id="mask0_40_26566" style="mask-type:luminance" maskUnits="userSpaceOnUse" x="0" y="0" width="64" height="64">
<path d="M32 64C49.6731 64 64 49.6731 64 32C64 14.3269 49.6731 0 32 0C14.3269 0 0 14.3269 0 32C0 49.6731 14.3269 64 32 64Z" fill="white"/>
</mask>
<g mask="url(#mask0_40_26566)">
<path d="M63.039 39.741C61.5076 45.8793 58.1904 51.4257 53.5069 55.6789C48.8235 59.9321 42.984 62.701 36.7269 63.6356C30.4699 64.5702 24.0762 63.6284 18.3543 60.9294C12.6324 58.2304 7.83931 53.8954 4.58105 48.4725C1.32279 43.0496 -0.254312 36.7823 0.0491645 30.4631C0.352641 24.1439 2.52306 18.0565 6.286 12.9708C10.0489 7.88506 15.2354 4.02929 21.1896 1.89104C27.1438 -0.247208 33.5983 -0.57192 39.737 0.957964C43.8135 1.97444 47.6499 3.78393 51.027 6.28312C54.4042 8.7823 57.256 11.9222 59.4197 15.5236C61.5833 19.125 63.0164 23.1173 63.637 27.2725C64.2577 31.4277 64.0538 35.6645 63.037 39.741H63.039Z" fill="#F7931A"/>
<path d="M46.111 27.4409C46.748 23.1819 43.506 20.8929 39.072 19.3659L40.511 13.5999L37.004 12.7229L35.604 18.3399C34.681 18.1099 33.733 17.8929 32.791 17.6779L34.201 12.0239L30.692 11.1489L29.253 16.9159C28.489 16.7419 27.739 16.5699 27.011 16.3889V16.3709L22.169 15.1619L21.235 18.9119C21.235 18.9119 23.84 19.5119 23.785 19.5459C24.2707 19.6045 24.7141 19.8511 25.0199 20.2329C25.3258 20.6147 25.4698 21.1012 25.421 21.5879L23.783 28.1599C23.9071 28.1907 24.0291 28.2298 24.148 28.2769C24.031 28.2479 23.906 28.2159 23.777 28.1849L21.477 37.3909C21.4265 37.5516 21.3448 37.7007 21.2365 37.8297C21.1281 37.9587 20.9954 38.0649 20.8459 38.1425C20.6964 38.22 20.533 38.2671 20.3652 38.2813C20.1974 38.2954 20.0284 38.2763 19.868 38.2249C19.903 38.2759 17.316 37.5879 17.316 37.5879L15.573 41.6079L20.143 42.7469C20.993 42.9599 21.826 43.1829 22.643 43.3929L21.19 49.2279L24.704 50.0999L26.143 44.3269C27.101 44.5869 28.031 44.8269 28.943 45.0529L27.504 50.7999L31.016 51.6749L32.469 45.8509C38.457 46.9839 42.959 46.5269 44.854 41.1109C46.381 36.7509 44.778 34.2349 41.628 32.5949C43.922 32.0659 45.651 30.5569 46.111 27.4389V27.4409ZM38.088 38.6909C37.003 43.0509 29.661 40.6909 27.281 40.1029L29.209 32.3729C31.589 32.9669 39.222 34.1429 38.088 38.6909ZM39.174 27.3779C38.184 31.3439 32.074 29.3289 30.091 28.8349L31.839 21.8239C33.821 22.3179 40.205 23.2409 39.174 27.3779Z" fill="white"/>
</g>
</g>
<defs>
<clipPath id="clip0_40_26566">
<rect width="64" height="64" fill="white"/>
</clipPath>
</defs>
</svg>

<svg xmlns="http://www.w3.org/2000/svg" xmlns:xlink="http://www.w3.org/1999/xlink" width="64" height="64" viewBox="0 0 64 64"><defs><clipPath id="a"><circle cx="32" cy="32" r="32" transform="translate(286 419)" fill="#dedede"/></clipPath></defs><g transform="translate(-286 -419)" clip-path="url(#a)"><g transform="translate(286.004 419)"><path d="M63.035,39.741A31.989,31.989,0,1,1,39.733.958a31.991,31.991,0,0,1,23.3,38.783h0Z" fill="#f7931a"/><path d="M46.107,27.441c.637-4.259-2.605-6.548-7.039-8.075L40.507,13.6,37,12.723l-1.4,5.617c-.923-.23-1.871-.447-2.813-.662l1.41-5.654-3.509-.875-1.439,5.767c-.764-.174-1.514-.346-2.242-.527l0-.018-4.842-1.209-.934,3.75s2.605.6,2.55.634a1.869,1.869,0,0,1,1.636,2.042l-1.638,6.572a2.853,2.853,0,0,1,.365.117c-.117-.029-.242-.061-.371-.092l-2.3,9.206a1.278,1.278,0,0,1-1.609.834c.035.051-2.552-.637-2.552-.637l-1.743,4.02,4.57,1.139c.85.213,1.683.436,2.5.646l-1.453,5.835L24.7,50.1l1.439-5.773c.958.26,1.888.5,2.8.726L27.5,50.8l3.512.875,1.453-5.824c5.988,1.133,10.49.676,12.385-4.74,1.527-4.36-.076-6.876-3.226-8.516,2.294-.529,4.023-2.038,4.483-5.156h0Zm-8.023,11.25c-1.085,4.36-8.427,2-10.807,1.412l1.928-7.73c2.38.594,10.013,1.77,8.879,6.318ZM39.17,27.378c-.99,3.966-7.1,1.951-9.083,1.457l1.748-7.011c1.982.494,8.366,1.416,7.335,5.553Z" fill="#fff"/></g></g></svg>
